P3
64 10
255
71 76 87 73 78 89 75 80 91 77 82 92 79 84 94 81 86 96 83 88 98 85 90 100 87 92 102 89 94 104 91 96 106 93 98 108 95 100 110 96 102 112 98 103 114 100 105 116 102 107 118 104 109 119 106 111 121 108 113 123 110 115 125 112 117 127 114 119 129 116 121 131 118 123 133 120 125 135 122 127 137 126 131 142 133 138 149 140 145 156 147 153 163 155 160 170 162 167 177 169 174 184 176 181 191 183 188 198 190 195 205 195 200 210 197 202 212 199 204 213 202 206 215 204 208 217 206 210 219 209 213 220 211 215 222 213 217 224 216 219 226 218 221 227 220 223 229 223 225 231 225 227 232 227 230 234 230 232 236 232 234 238 234 236 239 236 238 241 239 240 243 241 242 245 243 244 246 246 247 248 248 249 250 250 251 252 253 253 253 255 255 255
102 64 61 103 65 62 105 66 63 106 67 64 108 68 65 109 69 66 111 70 67 112 71 68 113 72 69 115 73 70 116 74 71 118 76 72 119 77 73 121 78 74 122 79 75 123 80 75 125 81 76 126 82 77 128 83 78 129 84 79 131 85 80 132 86 81 137 91 86 143 98 92 150 106 99 157 113 106 163 121 112 170 128 119 177 136 126 184 143 133 190 150 139 197 158 146 204 165 153 210 172 159 213 178 165 217 183 171 221 189 176 224 194 182 228 200 187 231 206 193 235 211 198 238 217 204 242 222 210 245 227 214 245 229 216 246 230 218 246 231 220 247 233 222 247 234 223 248 236 225 248 237 227 249 238 229 249 240 230 250 241 232 250 242 234 251 244 236 251 245 238 252 247 239 252 248 241 253 249 243 253 251 245 254 252 246 254 254 248 255 255 250
112 74 71 114 75 73 115 76 74 117 78 75 118 79 76 120 80 77 121 82 78 123 83 79 124 84 81 126 85 82 127 87 83 129 88 84 130 89 85 132 90 86 133 92 87 135 93 88 136 94 90 138 95 91 140 97 92 141 98 93 143 99 94 148 106 100 155 113 107 162 121 114 169 128 121 175 135 128 182 143 135 189 150 142 196 158 149 202 165 156 209 172 163 216 180 170 221 186 175 223 190 179 225 194 184 228 198 188 230 202 192 233 206 196 235 210 200 238 214 204 240 218 208 242 222 212 245 226 216 247 230 220 250 234 224 250 236 226 250 237 227 251 238 229 251 239 230 251 240 232 251 241 233 252 242 235 252 243 236 252 244 238 253 245 239 253 246 241 253 247 242 253 249 244 254 250 245 254 251 247 254 252 248 254 253 249 255 254 251 255 255 252
41 31 46 41 31 46 41 31 46 41 31 46 41 31 46 41 31 46 41 31 46 41 31 46 41 31 46 41 31 46 41 31 46 41 31 46 41 31 46 41 31 46 41 31 46 41 31 46 41 31 46 41 31 46 41 31 46 41 31 46 41 31 46 41 31 46 41 31 46 41 31 46 64 48 71 64 48 71 64 48 71 64 48 71 64 48 71 64 48 71 64 48 71 64 48 71 64 48 71 64 48 71 64 48 71 140 107 148 140 107 148 140 107 148 140 107 148 140 107 148 140 107 148 140 107 148 140 107 148 140 107 148 140 107 148 140 107 148 235 214 230 235 214 230 235 214 230 235 214 230 235 214 230 235 214 230 235 214 230 235 214 230 235 214 230 235 214 230 235 214 230 235 214 230 235 214 230 235 214 230 235 214 230 235 214 230 235 214 230 235 214 230
51 59 71 51 59 71 51 59 71 51 59 71 51 59 71 51 59 71 51 59 71 51 59 71 51 59 71 51 59 71 51 59 71 51 59 71 51 59 71 51 59 71 51 59 71 51 59 71 51 59 71 51 59 71 51 59 71 51 59 71 51 59 71 51 59 71 51 59 71 87 97 112 87 97 112 87 97 112 87 97 112 87 97 112 87 97 112 87 97 112 87 97 112 87 97 112 87 97 112 168 178 194 168 178 194 168 178 194 168 178 194 168 178 194 168 178 194 168 178 194 168 178 194 168 178 194 168 178 194 235 240 247 235 240 247 235 240 247 235 240 247 235 240 247 235 240 247 235 240 247 235 240 247 235 240 247 235 240 247 235 240 247 235 240 247 235 240 247 235 240 247 235 240 247 235 240 247 235 240 247 235 240 247 235 240 247 235 240 247 235 240 247
36 43 56 36 43 56 36 43 56 36 43 56 36 43 56 36 43 56 36 43 56 36 43 56 36 43 56 36 43 56 36 43 56 36 43 56 36 43 56 36 43 56 36 43 56 36 43 56 36 43 56 36 43 56 36 43 56 61 74 92 61 74 92 61 74 92 61 74 92 61 74 92 61 74 92 61 74 92 61 74 92 61 74 92 61 74 92 61 74 92 61 74 92 148 163 186 148 163 186 148 163 186 148 163 186 148 163 186 148 163 186 148 163 186 148 163 186 148 163 186 245 250 255 245 250 255 245 250 255 245 250 255 245 250 255 245 250 255 245 250 255 245 250 255 245 250 255 245 250 255 245 250 255 245 250 255 245 250 255 245 250 255 245 250 255 245 250 255 245 250 255 245 250 255 245 250 255 245 250 255 245 250 255 245 250 255 245 250 255 245 250 255
76 87 107 76 87 107 76 87 107 76 87 107 76 87 107 76 87 107 76 87 107 76 87 107 76 87 107 76 87 107 76 87 107 76 87 107 76 87 107 76 87 107 76 87 107 76 87 107 76 87 107 76 87 107 76 87 107 110 128 158 110 128 158 110 128 158 110 128 158 110 128 158 110 128 158 110 128 158 110 128 158 110 128 158 110 128 158 110 128 158 110 128 158 184 204 240 184 204 240 184 204 240 184 204 240 184 204 240 184 204 240 184 204 240 184 204 240 184 204 240 184 204 240 250 255 255 250 255 255 250 255 255 250 255 255 250 255 255 250 255 255 250 255 255 250 255 255 250 255 255 250 255 255 250 255 255 250 255 255 250 255 255 250 255 255 250 255 255 250 255 255 250 255 255 250 255 255 250 255 255 250 255 255 250 255 255 250 255 255 250 255 255
107 107 107 109 109 109 111 111 111 112 112 112 114 114 114 116 116 116 118 118 118 120 120 120 121 121 121 123 123 123 125 125 125 127 127 127 129 129 129 130 130 130 132 132 132 134 134 134 136 136 136 138 138 138 139 139 139 141 141 141 143 143 143 145 145 145 147 147 147 148 148 148 150 150 150 152 152 152 154 154 154 156 156 156 157 157 157 162 162 162 169 169 169 175 175 175 182 182 182 188 188 188 195 195 195 201 201 201 208 208 208 214 214 214 220 220 220 221 221 221 222 222 222 224 224 224 225 225 225 227 227 227 228 228 228 230 230 230 231 231 231 232 232 232 234 234 234 235 235 235 237 237 237 238 238 238 239 239 239 241 241 241 242 242 242 244 244 244 245 245 245 246 246 246 248 248 248 249 249 249 251 251 251 252 252 252 254 254 254 255 255 255
87 87 87 89 89 89 91 91 91 94 94 94 96 96 96 98 98 98 101 101 101 103 103 103 105 105 105 108 108 108 110 110 110 112 112 112 114 114 114 117 117 117 119 119 119 121 121 121 124 124 124 126 126 126 128 128 128 131 131 131 133 133 133 135 135 135 138 138 138 140 140 140 142 142 142 145 145 145 147 147 147 151 151 151 158 158 158 165 165 165 171 171 171 178 178 178 184 184 184 191 191 191 197 197 197 204 204 204 211 211 211 215 215 215 216 216 216 218 218 218 220 220 220 221 221 221 223 223 223 224 224 224 226 226 226 227 227 227 229 229 229 230 230 230 232 232 232 233 233 233 235 235 235 236 236 236 238 238 238 240 240 240 241 241 241 243 243 243 244 244 244 246 246 246 247 247 247 249 249 249 250 250 250 252 252 252 253 253 253 255 255 255
76 82 92 79 84 94 81 86 96 83 88 98 85 91 101 88 93 103 90 95 105 92 97 107 94 99 110 97 102 112 99 104 114 101 106 116 103 108 119 105 111 121 108 113 123 110 115 125 112 117 127 114 119 130 117 122 132 119 124 134 121 126 136 123 128 139 125 131 141 128 133 143 130 135 145 132 137 147 137 142 153 143 148 158 149 154 164 155 160 170 161 166 176 167 172 182 172 177 188 178 183 194 184 189 199 190 195 205 196 201 211 200 205 215 202 207 216 204 209 218 206 211 220 208 213 221 210 215 223 213 216 224 215 218 226 217 220 227 219 222 229 221 224 230 223 226 232 225 228 233 227 230 235 230 232 236 232 234 238 234 236 240 236 238 241 238 240 243 240 242 244 242 243 246 244 245 247 247 247 249 249 249 250 251 251 252 253 253 253 255 255 255
