P3
64 10
255
71 76 87 73 78 89 75 80 91 77 82 92 79 84 94 81 86 96 83 88 98 85 90 100 87 92 102 89 94 104 91 96 106 93 98 108 95 100 110 96 102 112 98 103 114 100 105 116 102 107 118 104 109 119 106 111 121 108 113 123 110 115 125 112 117 127 114 119 129 116 121 131 118 123 133 120 125 135 122 127 137 126 131 142 133 138 149 140 145 156 147 153 163 155 160 170 162 167 177 169 174 184 176 181 191 183 188 198 190 195 205 195 200 210 197 202 212 199 204 213 202 206 215 204 208 217 206 210 219 209 213 220 211 215 222 213 217 224 216 219 226 218 221 227 220 223 229 223 225 231 225 227 232 227 230 234 230 232 236 232 234 238 234 236 239 236 238 241 239 240 243 241 242 245 243 244 246 246 247 248 248 249 250 250 251 252 253 253 253 255 255 255
102 64 61 103 65 62 105 66 63 106 67 64 108 68 65 109 69 66 111 70 67 112 71 68 113 72 69 115 73 70 116 74 71 118 76 72 119 77 73 121 78 74 122 79 75 123 80 75 125 81 76 126 82 77 128 83 78 129 84 79 131 85 80 132 86 81 136 90 85 143 97 90 149 103 96 155 109 102 161 116 107 168 122 113 174 128 119 180 134 124 187 141 130 193 147 135 199 153 141 205 159 146 208 162 148 211 166 150 215 170 153 218 173 155 221 177 157 225 180 160 228 184 162 231 187 164 234 191 166 237 194 168 238 195 169 238 195 169 238 196 170 239 197 170 239 198 171 239 198 171 240 199 172 240 200 172 241 201 173 241 202 173 241 202 174 242 203 174 242 204 175 243 205 175 243 205 176 243 206 176 244 207 177 244 208 177 244 208 178 245 209 178
112 74 71 114 75 73 115 76 74 117 78 75 118 79 76 120 80 77 121 82 78 123 83 79 124 84 81 126 85 82 127 87 83 129 88 84 130 89 85 132 90 86 133 92 87 135 93 88 136 94 90 138 95 91 140 97 92 141 98 93 143 99 94 148 105 99 154 111 105 161 118 110 167 124 116 173 131 122 180 138 127 186 144 133 192 151 138 198 157 144 205 164 150 211 170 155 215 175 159 218 177 161 220 179 162 222 182 164 224 184 165 226 187 167 229 189 169 231 192 170 233 194 172 235 196 173 238 199 175 240 201 177 242 204 178 243 205 179 243 206 180 243 206 181 244 207 182 244 208 183 245 209 184 245 210 185 245 210 186 246 211 187 246 212 188 247 213 189 247 214 190 247 214 191 248 215 192 248 216 193 249 217 194 249 218 194 249 218 195 250 219 196
41 31 46 41 31 46 41 31 46 41 31 46 41 31 46 41 31 46 41 31 46 41 31 46 41 31 46 41 31 46 41 31 46 41 31 46 41 31 46 41 31 46 41 31 46 41 31 46 41 31 46 41 31 46 41 31 46 41 31 46 41 31 46 41 31 46 41 31 46 41 31 46 64 48 71 64 48 71 64 48 71 64 48 71 64 48 71 64 48 71 64 48 71 64 48 71 64 48 71 64 48 71 64 48 71 140 107 148 140 107 148 140 107 148 140 107 148 140 107 148 140 107 148 140 107 148 140 107 148 140 107 148 140 107 148 140 107 148 235 214 230 235 214 230 235 214 230 235 214 230 235 214 230 235 214 230 235 214 230 235 214 230 235 214 230 235 214 230 235 214 230 235 214 230 235 214 230 235 214 230 235 214 230 235 214 230 235 214 230 235 214 230
51 59 71 51 59 71 51 59 71 51 59 71 51 59 71 51 59 71 51 59 71 51 59 71 51 59 71 51 59 71 51 59 71 51 59 71 51 59 71 51 59 71 51 59 71 51 59 71 51 59 71 51 59 71 51 59 71 51 59 71 51 59 71 51 59 71 51 59 71 87 97 112 87 97 112 87 97 112 87 97 112 87 97 112 87 97 112 87 97 112 87 97 112 87 97 112 87 97 112 168 178 194 168 178 194 168 178 194 168 178 194 168 178 194 168 178 194 168 178 194 168 178 194 168 178 194 168 178 194 235 240 247 235 240 247 235 240 247 235 240 247 235 240 247 235 240 247 235 240 247 235 240 247 235 240 247 235 240 247 235 240 247 235 240 247 235 240 247 235 240 247 235 240 247 235 240 247 235 240 247 235 240 247 235 240 247 235 240 247 235 240 247
36 43 56 36 43 56 36 43 56 36 43 56 36 43 56 36 43 56 36 43 56 36 43 56 36 43 56 36 43 56 36 43 56 36 43 56 36 43 56 36 43 56 36 43 56 36 43 56 36 43 56 36 43 56 36 43 56 61 74 92 61 74 92 61 74 92 61 74 92 61 74 92 61 74 92 61 74 92 61 74 92 61 74 92 61 74 92 61 74 92 61 74 92 148 163 186 148 163 186 148 163 186 148 163 186 148 163 186 148 163 186 148 163 186 148 163 186 148 163 186 245 250 255 245 250 255 245 250 255 245 250 255 245 250 255 245 250 255 245 250 255 245 250 255 245 250 255 245 250 255 245 250 255 245 250 255 245 250 255 245 250 255 245 250 255 245 250 255 245 250 255 245 250 255 245 250 255 245 250 255 245 250 255 245 250 255 245 250 255 245 250 255
76 87 107 76 87 107 76 87 107 76 87 107 76 87 107 76 87 107 76 87 107 76 87 107 76 87 107 76 87 107 76 87 107 76 87 107 76 87 107 76 87 107 76 87 107 76 87 107 76 87 107 76 87 107 76 87 107 110 128 158 110 128 158 110 128 158 110 128 158 110 128 158 110 128 158 110 128 158 110 128 158 110 128 158 110 128 158 110 128 158 110 128 158 184 204 240 184 204 240 184 204 240 184 204 240 184 204 240 184 204 240 184 204 240 184 204 240 184 204 240 184 204 240 250 255 255 250 255 255 250 255 255 250 255 255 250 255 255 250 255 255 250 255 255 250 255 255 250 255 255 250 255 255 250 255 255 250 255 255 250 255 255 250 255 255 250 255 255 250 255 255 250 255 255 250 255 255 250 255 255 250 255 255 250 255 255 250 255 255 250 255 255
107 107 107 109 109 109 111 111 111 112 112 112 114 114 114 116 116 116 118 118 118 120 120 120 121 121 121 123 123 123 125 125 125 127 127 127 129 129 129 130 130 130 132 132 132 134 134 134 136 136 136 138 138 138 139 139 139 141 141 141 143 143 143 145 145 145 147 147 147 148 148 148 150 150 150 152 152 152 154 154 154 156 156 156 157 157 157 162 162 162 169 169 169 175 175 175 182 182 182 188 188 188 195 195 195 201 201 201 208 208 208 214 214 214 220 220 220 221 221 221 222 222 222 224 224 224 225 225 225 227 227 227 228 228 228 230 230 230 231 231 231 232 232 232 234 234 234 235 235 235 237 237 237 238 238 238 239 239 239 241 241 241 242 242 242 244 244 244 245 245 245 246 246 246 248 248 248 249 249 249 251 251 251 252 252 252 254 254 254 255 255 255
87 87 87 89 89 89 91 91 91 94 94 94 96 96 96 98 98 98 101 101 101 103 103 103 105 105 105 108 108 108 110 110 110 112 112 112 114 114 114 117 117 117 119 119 119 121 121 121 124 124 124 126 126 126 128 128 128 131 131 131 133 133 133 135 135 135 138 138 138 140 140 140 142 142 142 145 145 145 147 147 147 151 151 151 158 158 158 165 165 165 171 171 171 178 178 178 184 184 184 191 191 191 197 197 197 204 204 204 211 211 211 215 215 215 216 216 216 218 218 218 220 220 220 221 221 221 223 223 223 224 224 224 226 226 226 227 227 227 229 229 229 230 230 230 232 232 232 233 233 233 235 235 235 236 236 236 238 238 238 240 240 240 241 241 241 243 243 243 244 244 244 246 246 246 247 247 247 249 249 249 250 250 250 252 252 252 253 253 253 255 255 255
76 82 92 79 84 94 81 86 96 83 88 98 85 91 101 88 93 103 90 95 105 92 97 107 94 99 110 97 102 112 99 104 114 101 106 116 103 108 119 105 111 121 108 113 123 110 115 125 112 117 127 114 119 130 117 122 132 119 124 134 121 126 136 123 128 139 125 131 141 128 133 143 130 135 145 132 137 147 137 142 153 143 148 158 149 154 164 155 160 170 161 166 176 167 172 182 172 177 188 178 183 194 184 189 199 190 195 205 196 201 211 200 205 215 202 207 216 204 209 218 206 211 220 208 213 221 210 215 223 213 216 224 215 218 226 217 220 227 219 222 229 221 224 230 223 226 232 225 228 233 227 230 235 230 232 236 232 234 238 234 236 240 236 238 241 238 240 243 240 242 244 242 243 246 244 245 247 247 247 249 249 249 250 251 251 252 253 253 253 255 255 255
